X: 2
T:Micho Russell's Slide
T:Callaghan's Slide
M:12/8
L:1/8
R:Slide
K:D
B[|A2A A2A ABA F2E|DFA B2A B2A F2d|!
dcd a2g f2d B2A|BcA BAB d3 d2B||!
A2A A2A ABA F2E|DFA B2A B2A F2d|!
dcd a2g f2d B2A|BcA BAB d3 d2A|]!
dcd a2g f2d B2A|BcA BcA B2A F2d|!
dcd a2g f2d B2A|BcA BAB d3 d2A||!
dcd a2g f2d B2A|BcA BcA B2A F2d|!
dcd a2g f2d B2A|BcA BAB d3 d2B|]!
